src/svg/arrow-maximise.svg

<svg version="1.2" baseProfile="tiny" xmlns="http://www.w3.org/2000/svg" width="24" height="24" viewBox="0 0 24 24"><path d="M15 4c-.553 0-1 .448-1 1s.447 1 1 1h1.586l-3.293 3.293c-.391.391-.391 1.023 0 1.414.195.195.451.293.707.293s.512-.098.707-.293l3.293-3.293v1.586c0 .552.447 1 1 1s1-.448 1-1v-5h-5zM9.293 13.293l-3.293 3.293v-1.586c0-.552-.447-1-1-1s-1 .448-1 1v4.999h.996l4.004.001c.552 0 1-.448 1-1s-.447-1-1-1h-1.586l3.293-3.292c.391-.391.391-1.023 0-1.414s-1.023-.392-1.414-.001zM7 12c.552 0 1-.448 1-1v-3h3c.553 0 1-.448 1-1s-.447-1-1-1h-4.999l-.001 5c0 .552.447 1 1 1zM17 12c-.553 0-1 .448-1 1v3h-3c-.553 0-1 .448-1 1s.447 1 1 1h5v-5c0-.552-.447-1-1-1z"/></svg>

<?xml version="1.0" encoding="iso-8859-1"?>
<!-- Generator: Adobe Illustrator 16.2.1, SVG Export Plug-In . SVG Version: 6.00 Build 0)  -->
<svg version="1.2" baseProfile="tiny" id="Layer_1" xmlns="http://www.w3.org/2000/svg" xmlns:xlink="http://www.w3.org/1999/xlink"
	 x="0px" y="0px" width="24px" height="24px" viewBox="0 0 24 24" xml:space="preserve">
<path d="M15,4c-0.553,0-1,0.448-1,1s0.447,1,1,1h1.586l-3.293,3.293c-0.391,0.391-0.391,1.023,0,1.414
	C13.488,10.902,13.744,11,14,11s0.512-0.098,0.707-0.293L18,7.414V9c0,0.552,0.447,1,1,1s1-0.448,1-1V4H15z"/>
<path d="M9.293,13.293L6,16.586V15c0-0.552-0.447-1-1-1s-1,0.448-1,1v4.999h0.996C5.004,19.999,9,20,9,20c0.552,0,1-0.448,1-1
	s-0.447-1-1-1l-1.586,0l3.293-3.292c0.391-0.391,0.391-1.023,0-1.414S9.684,12.902,9.293,13.293z"/>
<path d="M7,12c0.552,0,1-0.448,1-1V8h3c0.553,0,1-0.448,1-1s-0.447-1-1-1H6.001L6,11C6,11.552,6.447,12,7,12z"/>
<path d="M17,12c-0.553,0-1,0.448-1,1v3h-3c-0.553,0-1,0.448-1,1s0.447,1,1,1h5v-5C18,12.448,17.553,12,17,12z"/>
</svg>
